X:1228
T:A Bright May Morning
M:C|
L:1/8
R:Reel
B:O'Neill's 1228
N:Collected by McNamara
Z:Transcribed by Trish O'Neil
K:G
GgedB2AG|3FED AD BDAD|GgedB2AF|DEGA BGG2::
TgedB cBcd|eabag aeef|Tgedc BcBA|Ggga bgg2:|
